X:1
T:074 - Graças a Jesus
T:Letra: Robert Reid Kalley (1809-1888)
T:Música: John Bacchus Dykes (1823-1876)
M:4/4
L:1/4
Q:1/4=100
K:Abmaj
V:1
"Ab"A>A "Eb7"A>G | "(Db)"F "(Eb7)"G "Ab"A2 | "Eb"B "Eb7"B "Ab"c E | "Db"F "(Bbm)"B "Eb"G2 | B>d "Ab"c>A | "Eb7"G B "Fm"A2 | "Db"A>B "Ab/Eb"A>A | A "Eb"G "Ab"A2 |]
w:1.~Gra-ças ao bom Sal-va-dor, Que me li-vra do fu-ror Do fe-roz des-tru-i-dor! Gra-ças, gra-ças a Je-sus!
w:2.~Gra-ças ao fi-el Pas-tor, Que mor-reu por gran-dea-mor Des-te po-bre pe-ca-dor! Gra-ças, gra-ças a Je-sus!
W:
W:
W:1.Graças ao bom Salvador,
W:Que me livra do furor
W:Do feroz destruidor!
W:Graças, graças a Jesus!
W:
W:
W:
W:2.Graças ao fiel Pastor,
W:Que morreu por grande amor
W:Deste pobre pecador!
W:Graças, graças a Jesus!
W:





